!!!OTL: Es war einmal ein kleiner Mann, re - ri - rosa
!!!ARE: Europa, Mitteleuropa, Deutschland, Provinz Sachsen
!!!SCT: D0156
!!!YEM: Copyright 1995, estate of Helmut Schaffrath.
**kern
*ICvox
*Ivox
*M2/4
*k[f#]
*G:
{8d
=1
8g
8g
8g
8g
=2
8g
8d
4d}
=3
{4g
4a
=4
4b
8g}
{8g
=5
8b
8b
8b
8b
=6
8b
8g
4g}
=7
{8a
8a
8a
8f#
=8
4.g}
==
!!!AGN: Ehestands - Lied
!! Inzipit = entfernte Variante ??
!!!ONB: ESAC (Essen Associative Code) Database: DVA
!!!AMT: simple duple
!!!AIN: vox
!!!EED: Helmut Schaffrath
!!!EEV: 1.0
*-
